X:1
T:Rue des trois frères
T:Rue des trois frères
T:Fabrizio Paterlini
C:Fabrizio Paterlini
%%score { 1 | 2 }
L:1/8
M:3/4
K:Ab
V:1 treble nm="Piano" snm="Pno."
V:2 bass 
V:1
 z6 | z6 | z6 | z6 | z6 | z6 | z6 | z6 | z A/B/ c4 | z A G4 | z A E4 | z2 F4 | z A/B/ c4 | z A G4 | %14
 z A E4 | z6 | z A/B/ c4 | z A{/A} G4 | z A E4 | z2 F4 | z A/B/ c4 | z A G4 | z A E4 | z6 | %24
 z2 [Aa]c [Aa]c | [Aa]c [Aa]c [Aa]c | [Aa]c [Gg]c [Gg]c | [Gg]c [Ff]c [Ff]c | [Ff]c [Aa]c [Aa]c | %29
 [Aa]c [Aa]c [Aa]c | [Aa]c [Gg]c [Gg]c | [Gg]c [Ff]c [Ff]c | [Ff]c [cc']f [cc']f | %33
 [cc']f [cc']f [cc']f | [cc']f [Bb]f [Bb]f | [Bb]f [Aa]f [Aa]f | [Aa]f [Aa]c [Aa]c | %37
 [Aa]c [Aa]c [Aa]c | [Aa]c [Gg]c [Gg]c | [Gg]c !arpeggio!!fermata![Fcf]4 | z a/b/ c'4 | %41
 z a{/a} g4 | z a e4 | z2 f4 | z a/b/ c'4 | z a Pg4 | z a e4 | z6 | z a/b/ c'4 | z a{/a} g4 | %50
 z a e4 | z2 f4 | z a/b/ c'4 | z a Pg4 | z a e4 | z6 | z2 [aa']c' [aa']c' | %57
 [aa']c' [aa']c' [aa']c' | [aa']c' [gg']c' [gg']c' | [gg']c' [ff']c' [ff']c' | %60
 [ff']c' [aa']c' [aa']c' | [aa']c' [aa']c' [aa']c' | [aa']c' [aa']c' [gg']c' | %63
 [gg']c' [gg']c' [ff']c' | [ff']c' [ff']c' [c'c'']f' | [c'c'']f' [c'c'']f' [c'c'']f' | %66
 [c'c'']f' [bb']e' [bb']e' | [bb']e' [aa']d' [aa']d' | [aa']d' [aa']c' [aa']c' | %69
 [aa']c' [aa']c' [aa']c' | [aa']c' [gg']c' [gg']c' | [gg']c' !arpeggio![fc'f']4- | %72
 [fc'f']4 [FAc]2- | [FAc]3- [FAc]3 |] %74
V:2
 F,2 [A,C]2 [A,C]2 | E,2 [A,C]2 [A,C]2 | C,2 [A,C]2 [A,C]2 | D,2 [A,C]2 [A,C]2 | %4
 F,2 [A,C]2 [A,C]2 | E,2 [A,C]2 [A,C]2 | C,2 [A,C]2 [A,C]2 | D,2 [A,C]2 [A,C]2- | %8
 [A,C]2 F,2 [A,C]2 | [A,C]2 E,2 [A,C]2 | [A,C]2 C,2 [A,C]2 | [A,C]2 D,2 [A,C]2 | %12
 [A,C]2 F,2 [A,C]2 | [A,C]2 E,2 [A,C]2 | [A,C]2 C,2 [A,C]2 | [A,C]2 D,2 [A,C]2 | %16
 [A,C]2 F,2 [A,C]2 | [A,C]2 E,2 [A,C]2 | [A,C]2 C,2 [A,C]2 | [A,C]2 D,2 [A,C]2 | %20
 [A,C]2 F,2 [A,C]2 | [A,C]2 E,2 [A,C]2 | [A,C]2 C,2 [A,C]2 | [A,C]2 D,2 [A,C]2 | %24
 [A,C]2 F,2 [A,C]2 | [A,C]2 E,2 [A,C]2 | [A,C]2 C,2 [A,C]2 | [A,C]2 D,2 [A,C]2 | %28
 [A,C]2 F,2 [A,C]2 | [A,C]2 E,2 [A,C]2 | [A,C]2 C,2 [A,C]2 | [A,C]2 D,2 [A,C]2 | %32
 [A,C]2 F,2 [A,C]2 | [A,C]2 E,2 [A,C]2 | [A,C]2 C,2 [A,C]2 | [A,C]2 D,2 [A,C]2 | %36
 [A,C]2 F,2 [A,C]2 | [A,C]2 E,2 [A,C]2 | [A,C]2 C,2 [A,C]2 | [A,C]2 F,4 | z2 F,2 [A,C]2 | %41
 [A,C]2 E,2 [A,C]2 | [A,C]2 C,2 [A,C]2 | [A,C]2 D,2 [A,C]2 | [A,C]2 F,2 [A,C]2 | %45
 [A,C]2 E,2 [A,C]2 | [A,C]2 C,2 [A,C]2 | [A,C]2 D,2 [A,C]2 | [A,C]2 F,2 [A,C]2 | %49
 [A,C]2 E,2 [A,C]2 | [A,C]2 C,2 [A,C]2 | [A,C]2 D,2 [A,C]2 | [A,C]2 F,2 [A,C]2 | %53
 [A,C]2 E,2 [A,C]2 | [A,C]2 C,2 [A,C]2 | [A,C]2 D,2 [A,C]2 | [A,C]2 F,2 [A,C]2 | %57
 [A,C]2 E,2 [A,C]2 | [A,C]2 C,2 [A,C]2 | [A,C]2 D,2 [A,C]2 | [A,C]2 F,2 [A,C]2 | %61
 [A,C]2 E,2 [A,C]2 | [A,C]2 C,2 [A,C]2 | [A,C]2 D,2 [A,C]2 | [A,C]2 F,2 [A,C]2 | %65
 [A,C]2 E,2 [A,C]2 | [A,C]2 C,2 [A,C]2 | [A,C]2 D,2 [A,C]2 | [A,C]2 F,2 [A,C]2 | %69
 [A,C]2 E,2 [A,C]2 | [A,C]2 C,2 [A,C]2 | [A,C]2 F,4- | F,6- | F,6 |] %74

